SVG_Azure_Grouped/Management/Azure Arc Service.svg

<?xml version="1.0" encoding="UTF-8" standalone="no"?>
<!-- Generated by Microsoft Visio, SVG Export Azure Arc Service.svg Page-1 -->

<svg
   xmlns:dc="http://purl.org/dc/elements/1.1/"
   xmlns:cc="http://creativecommons.org/ns#"
   xmlns:rdf="http://www.w3.org/1999/02/22-rdf-syntax-ns#"
   xmlns:svg="http://www.w3.org/2000/svg"
   xmlns="http://www.w3.org/2000/svg"
   xmlns:xlink="http://www.w3.org/1999/xlink"
   xmlns:sodipodi="http://sodipodi.sourceforge.net/DTD/sodipodi-0.dtd"
   xmlns:inkscape="http://www.inkscape.org/namespaces/inkscape"
   width="0.78736079in"
   height="0.59066606in"
   viewBox="0 0 56.689885 42.527909"
   xml:space="preserve"
   class="st10"
   version="1.1"
   id="svg90"
   sodipodi:docname="Azure Arc Service.svg"
   style="font-size:12px;overflow:visible;color-interpolation-filters:sRGB;fill:none;fill-rule:evenodd;stroke-linecap:square;stroke-miterlimit:3"
   inkscape:version="0.92.5 (2060ec1f9f, 2020-04-08)"><metadata
   id="metadata94"><rdf:RDF><cc:Work
       rdf:about=""><dc:format>image/svg+xml</dc:format><dc:type
         rdf:resource="http://purl.org/dc/dcmitype/StillImage" /></cc:Work></rdf:RDF></metadata><sodipodi:namedview
   pagecolor="#ffffff"
   bordercolor="#666666"
   borderopacity="1"
   objecttolerance="10"
   gridtolerance="10"
   guidetolerance="10"
   inkscape:pageopacity="0"
   inkscape:pageshadow="2"
   inkscape:window-width="640"
   inkscape:window-height="480"
   id="namedview92"
   showgrid="false"
   inkscape:zoom="1.601301"
   inkscape:cx="37.795408"
   inkscape:cy="28.342455"
   inkscape:window-x="0"
   inkscape:window-y="0"
   inkscape:window-maximized="0"
   inkscape:current-layer="svg90" />
	<style
   type="text/css"
   id="style2">
	<![CDATA[
		.st1 {fill:#5ea0ef;stroke:none;stroke-linecap:butt;stroke-width:34}
		.st2 {fill:#005ba1;stroke:none;stroke-linecap:butt;stroke-width:34}
		.st3 {fill:#0078d4;stroke:none;stroke-linecap:butt;stroke-width:34}
		.st4 {fill:#9cebff;stroke:none;stroke-linecap:butt;stroke-width:34}
		.st5 {fill:#32bedd;stroke:none;stroke-linecap:butt;stroke-width:34}
		.st6 {fill:url(#grad0-16);stroke:none;stroke-linecap:butt;stroke-width:34}
		.st7 {fill:#50e6ff;stroke:none;stroke-linecap:butt;stroke-width:34}
		.st8 {fill:url(#grad0-29);stroke:none;stroke-linecap:butt;stroke-width:34}
		.st9 {fill:url(#grad0-33);stroke:none;stroke-linecap:butt;stroke-width:34}
		.st10 {fill:none;fill-rule:evenodd;font-size:12px;overflow:visible;stroke-linecap:square;stroke-miterlimit:3}
	]]>
	</style>

	<defs
   id="Patterns_And_Gradients">
		<linearGradient
   id="grad0-16"
   x1="0"
   y1="0"
   x2="1"
   y2="0"
   gradientTransform="rotate(-180,0.5,0.5)">
			<stop
   offset="0"
   stop-color="#32bedd"
   stop-opacity="1"
   id="stop4" />
			<stop
   offset="1"
   stop-color="#9cebff"
   stop-opacity="1"
   id="stop6" />
		</linearGradient>
		<linearGradient
   id="grad0-29"
   x1="0"
   y1="50.088939"
   x2="18.182717"
   y2="50.088939"
   gradientTransform="scale(0.61761947,1.61912)"
   gradientUnits="userSpaceOnUse">
			<stop
   offset="0"
   stop-color="#005ba1"
   stop-opacity="1"
   id="stop9" />
			<stop
   offset="1"
   stop-color="#005ba1"
   stop-opacity="1"
   id="stop11" />
		</linearGradient>
		<linearGradient
   id="grad0-33"
   x1="0.035084533"
   y1="112.98426"
   x2="27.080874"
   y2="112.98426"
   gradientTransform="scale(1.2667817,0.78940199)"
   gradientUnits="userSpaceOnUse">
			<stop
   offset="0"
   stop-color="#005ba1"
   stop-opacity="1"
   id="stop14" />
			<stop
   offset="0.975"
   stop-color="#32bedd"
   stop-opacity="1"
   id="stop16" />
		</linearGradient>
	<linearGradient
   inkscape:collect="always"
   xlink:href="#grad0-16"
   id="linearGradient4604"
   gradientTransform="scale(0.61761947,1.61912)"
   x1="0"
   y1="50.088939"
   x2="18.182717"
   y2="50.088939"
   gradientUnits="userSpaceOnUse" /><linearGradient
   inkscape:collect="always"
   xlink:href="#grad0-16"
   id="linearGradient4606"
   gradientTransform="scale(0.61761947,1.61912)"
   x1="0"
   y1="50.088939"
   x2="18.182717"
   y2="50.088939"
   gradientUnits="userSpaceOnUse" /></defs>
	<g
   id="g88"
   transform="translate(-34,-33.9964)">
		<title
   id="title20">Page-1</title>
		<g
   id="group12947-1"
   transform="translate(34,-34.0157)">
			<title
   id="title22">Azure Arc Service.12947</title>
			<g
   id="group12948-2">
				<title
   id="title24">Sheet.12948</title>
				<g
   id="shape12949-3"
   transform="translate(0,-29.4379)">
					<title
   id="title26">Sheet.12949</title>
					<path
   d="M 22.46,104 11.23,110.54 0,103.99 11.23,97.45 Z"
   class="st1"
   id="path28"
   inkscape:connector-curvature="0"
   style="fill:#5ea0ef;stroke:none;stroke-width:34;stroke-linecap:butt" />
				</g>
				<g
   id="shape12950-5"
   transform="translate(11.2315,-0.0220816)">
					<title
   id="title31">Sheet.12950</title>
					<path
   d="M 11.23,104 0,97.5 v 13.04 z"
   class="st2"
   id="path33"
   inkscape:connector-curvature="0"
   style="fill:#005ba1;stroke:none;stroke-width:34;stroke-linecap:butt" />
				</g>
				<g
   id="shape12951-7">
					<title
   id="title36">Sheet.12951</title>
					<path
   d="M 11.23,81.1 V 81.09 81.1 L 0,74.56 V 104 l 11.23,6.54 11.23,-6.54 v -0.03 l -11.23,6.54 V 97.48 l 11.23,6.49 V 74.56 Z"
   class="st3"
   id="path38"
   inkscape:connector-curvature="0"
   style="fill:#0078d4;stroke:none;stroke-width:34;stroke-linecap:butt" />
				</g>
				<g
   id="shape12952-9"
   transform="translate(34.2299,-29.4379)">
					<title
   id="title41">Sheet.12952</title>
					<path
   d="m 0,104 11.23,6.54 11.23,-6.55 -11.23,-6.54 z"
   class="st4"
   id="path43"
   inkscape:connector-curvature="0"
   style="fill:#9cebff;stroke:none;stroke-width:34;stroke-linecap:butt" />
				</g>
				<g
   id="shape12953-11"
   transform="translate(34.2299,-0.0220816)">
					<title
   id="title46">Sheet.12953</title>
					<path
   d="m 0,104 11.23,-6.5 v 13.04 z"
   class="st5"
   id="path48"
   inkscape:connector-curvature="0"
   style="fill:#32bedd;stroke:none;stroke-width:34;stroke-linecap:butt" />
				</g>
				<g
   id="shape12954-13"
   transform="translate(34.2299,-6.56139)">
					<title
   id="title51">Sheet.12954</title>
					<path
   d="m 11.23,87.64 v 0 16.38 L 0,110.54 V 81.1 Z"
   class="st6"
   id="path53"
   inkscape:connector-curvature="0"
   style="fill:url(#linearGradient4604);stroke:none;stroke-width:34;stroke-linecap:butt" />
				</g>
				<g
   id="shape12955-17"
   transform="translate(34.2299,-29.4379)">
					<title
   id="title56">Sheet.12955</title>
					<path
   d="m 0,104 11.23,6.54 11.23,-6.55 -11.23,-6.54 z"
   class="st4"
   id="path58"
   inkscape:connector-curvature="0"
   style="fill:#9cebff;stroke:none;stroke-width:34;stroke-linecap:butt" />
				</g>
				<g
   id="shape12956-19"
   transform="translate(34.2299)">
					<title
   id="title61">Sheet.12956</title>
					<path
   d="M 11.23,81.1 0,74.56 v 29.41 l 11.23,-6.49 v 13.03 L 0,103.97 V 104 L 11.23,110.54 22.46,104 V 74.56 Z"
   class="st7"
   id="path63"
   inkscape:connector-curvature="0"
   style="fill:#50e6ff;stroke:none;stroke-width:34;stroke-linecap:butt" />
				</g>
				<g
   id="shape12957-21"
   transform="translate(34.2299,-0.0220816)">
					<title
   id="title66">Sheet.12957</title>
					<path
   d="m 0,104 11.23,-6.5 v 13.04 z"
   class="st5"
   id="path68"
   inkscape:connector-curvature="0"
   style="fill:#32bedd;stroke:none;stroke-width:34;stroke-linecap:butt" />
				</g>
				<g
   id="shape12958-23"
   transform="translate(34.2299,-6.56139)">
					<title
   id="title71">Sheet.12958</title>
					<path
   d="m 11.23,87.64 v 0 16.38 L 0,110.54 V 81.1 Z"
   class="st6"
   id="path73"
   inkscape:connector-curvature="0"
   style="fill:url(#linearGradient4606);stroke:none;stroke-width:34;stroke-linecap:butt" />
				</g>
				<g
   id="shape12959-26"
   transform="translate(11.2315,-6.53931)">
					<title
   id="title76">Sheet.12959</title>
					<path
   d="m 0,87.63 v 0 16.39 l 11.23,6.52 V 81.1 Z"
   class="st8"
   id="path78"
   inkscape:connector-curvature="0"
   style="fill:url(#grad0-29);stroke:none;stroke-width:34;stroke-linecap:butt" />
				</g>
				<g
   id="shape12960-30"
   transform="translate(11.1528,-9.98088)">
					<title
   id="title81">Sheet.12960</title>
					<path
   d="m 34.27,102.38 c -1.96,4.91 -9.65,8.16 -16.84,8.16 h -0.51 c -7.18,0 -14.88,-3.25 -16.84,-8.16 0,0 -0.08,-4.92 0,-5.4 1.43,5.48 8.92,9.53 16.67,9.53 h 0.85 c 7.74,0 15.24,-4.05 16.67,-9.53 0.08,0.48 0,5.4 0,5.4 z M 31.05,89.19 A 20.9543,20.987 0 0 1 17.6,93.84 H 16.75 A 20.9638,20.9964 0 0 1 3.31,89.2 l -2.7,1.58 c 2.58,4.3 9.65,7.07 16.31,7.07 h 0.51 c 6.66,0 13.75,-2.78 16.32,-7.1 z"
   class="st9"
   id="path83"
   inkscape:connector-curvature="0"
   style="fill:url(#grad0-33);stroke:none;stroke-width:34;stroke-linecap:butt" />
				</g>
			</g>
		</g>
	</g>
</svg>

<?xml version="1.0" encoding="UTF-8" standalone="no"?>
<!DOCTYPE svg PUBLIC "-//W3C//DTD SVG 1.1//EN" "http://www.w3.org/Graphics/SVG/1.1/DTD/svg11.dtd">
<!-- Generated by Microsoft Visio, SVG Export Azure Arc Service.svg Page-1 -->
<svg xmlns="http://www.w3.org/2000/svg" xmlns:xlink="http://www.w3.org/1999/xlink" xmlns:ev="http://www.w3.org/2001/xml-events"
		width="1.73185in" height="1.53521in" viewBox="0 0 124.693 110.535" xml:space="preserve" color-interpolation-filters="sRGB"
		class="st10">
	<style type="text/css">
	<![CDATA[
		.st1 {fill:#5ea0ef;stroke:none;stroke-linecap:butt;stroke-width:34}
		.st2 {fill:#005ba1;stroke:none;stroke-linecap:butt;stroke-width:34}
		.st3 {fill:#0078d4;stroke:none;stroke-linecap:butt;stroke-width:34}
		.st4 {fill:#9cebff;stroke:none;stroke-linecap:butt;stroke-width:34}
		.st5 {fill:#32bedd;stroke:none;stroke-linecap:butt;stroke-width:34}
		.st6 {fill:url(#grad0-16);stroke:none;stroke-linecap:butt;stroke-width:34}
		.st7 {fill:#50e6ff;stroke:none;stroke-linecap:butt;stroke-width:34}
		.st8 {fill:url(#grad0-29);stroke:none;stroke-linecap:butt;stroke-width:34}
		.st9 {fill:url(#grad0-33);stroke:none;stroke-linecap:butt;stroke-width:34}
		.st10 {fill:none;fill-rule:evenodd;font-size:12px;overflow:visible;stroke-linecap:square;stroke-miterlimit:3}
	]]>
	</style>

	<defs id="Patterns_And_Gradients">
		<linearGradient id="grad0-16" x1="0" y1="0" x2="1" y2="0" gradientTransform="rotate(-180 0.5 0.5)">
			<stop offset="0" stop-color="#32bedd" stop-opacity="1"/>
			<stop offset="1" stop-color="#9cebff" stop-opacity="1"/>
		</linearGradient>
		<linearGradient id="grad0-29" x1="0" y1="0" x2="1" y2="0" gradientTransform="rotate(0 0.5 0.5)">
			<stop offset="0" stop-color="#005ba1" stop-opacity="1"/>
			<stop offset="1" stop-color="#005ba1" stop-opacity="1"/>
		</linearGradient>
		<linearGradient id="grad0-33" x1="0" y1="0" x2="1" y2="0" gradientTransform="rotate(0 0.5 0.5)">
			<stop offset="0" stop-color="#005ba1" stop-opacity="1"/>
			<stop offset="0.975" stop-color="#32bedd" stop-opacity="1"/>
		</linearGradient>
	</defs>
	<g>
		<title>Page-1</title>
		<g id="group12654-1" transform="translate(34,-34.0157)">
			<title>Azure Arc Service.12654</title>
			<g id="group12655-2">
				<title>Sheet.12655</title>
				<g id="shape12656-3" transform="translate(0,-29.4379)">
					<title>Sheet.12656</title>
					<path d="M22.46 104 L11.23 110.54 L0 103.99 L11.23 97.45 L22.46 104 Z" class="st1"/>
				</g>
				<g id="shape12657-5" transform="translate(11.2315,-0.0220816)">
					<title>Sheet.12657</title>
					<path d="M11.23 104 L0 97.5 L0 110.54 L11.23 104 Z" class="st2"/>
				</g>
				<g id="shape12658-7">
					<title>Sheet.12658</title>
					<path d="M11.23 81.1 L11.23 81.09 L11.23 81.1 L0 74.56 L0 104 L11.23 110.54 L22.46 104 L22.46 103.97 L11.23 110.51
								 L11.23 97.48 L22.46 103.97 L22.46 74.56 L11.23 81.1 Z" class="st3"/>
				</g>
				<g id="shape12659-9" transform="translate(34.2299,-29.4379)">
					<title>Sheet.12659</title>
					<path d="M0 104 L11.23 110.54 L22.46 103.99 L11.23 97.45 L0 104 Z" class="st4"/>
				</g>
				<g id="shape12660-11" transform="translate(34.2299,-0.0220816)">
					<title>Sheet.12660</title>
					<path d="M0 104 L11.23 97.5 L11.23 110.54 L0 104 Z" class="st5"/>
				</g>
				<g id="shape12661-13" transform="translate(34.2299,-6.56139)">
					<title>Sheet.12661</title>
					<path d="M11.23 87.64 L11.23 87.64 L11.23 104.02 L0 110.54 L0 81.1 L11.23 87.64 Z" class="st6"/>
				</g>
				<g id="shape12662-17" transform="translate(34.2299,-29.4379)">
					<title>Sheet.12662</title>
					<path d="M0 104 L11.23 110.54 L22.46 103.99 L11.23 97.45 L0 104 Z" class="st4"/>
				</g>
				<g id="shape12663-19" transform="translate(34.2299,-2.13163E-13)">
					<title>Sheet.12663</title>
					<path d="M11.23 81.1 L0 74.56 L0 103.97 L11.23 97.48 L11.23 110.51 L0 103.97 L0 104 L11.23 110.54 L22.46 104
								 L22.46 74.56 L11.23 81.1 Z" class="st7"/>
				</g>
				<g id="shape12664-21" transform="translate(34.2299,-0.0220816)">
					<title>Sheet.12664</title>
					<path d="M0 104 L11.23 97.5 L11.23 110.54 L0 104 Z" class="st5"/>
				</g>
				<g id="shape12665-23" transform="translate(34.2299,-6.56139)">
					<title>Sheet.12665</title>
					<path d="M11.23 87.64 L11.23 87.64 L11.23 104.02 L0 110.54 L0 81.1 L11.23 87.64 Z" class="st6"/>
				</g>
				<g id="shape12666-26" transform="translate(11.2315,-6.53931)">
					<title>Sheet.12666</title>
					<path d="M0 87.63 L0 87.63 L0 104.02 L11.23 110.54 L11.23 81.1 L0 87.63 Z" class="st8"/>
				</g>
				<g id="shape12667-30" transform="translate(11.1528,-9.98088)">
					<title>Sheet.12667</title>
					<path d="M34.27 102.38 C32.31 107.29 24.62 110.54 17.43 110.54 L16.92 110.54 C9.74 110.54 2.04 107.29 0.08 102.38
								 C0.08 102.38 0 97.46 0.08 96.98 C1.51 102.46 9 106.51 16.75 106.51 L17.6 106.51 C25.34 106.51 32.84
								 102.46 34.27 96.98 C34.35 97.46 34.27 102.38 34.27 102.38 ZM31.05 89.19 A20.9543 20.987 0 0 1 17.6
								 93.84 L16.75 93.84 A20.9638 20.9964 0 0 1 3.31 89.2 L0.61 90.78 C3.19 95.08 10.26 97.85 16.92 97.85
								 L17.43 97.85 C24.09 97.85 31.18 95.07 33.75 90.75 L31.05 89.19 Z" class="st9"/>
				</g>
			</g>
		</g>
	</g>
</svg>
